assets/bin-fill.svg

<svg xmlns="http://www.w3.org/2000/svg" fill="none" viewBox="0 0 20 28">
  <mask id="a" fill="#fff">
    <path d="M0 5.54545c0-1.65685 1.34315-3 3-3h13.5152c1.6568 0 3 1.34315 3 3v2.09091H0V5.54545Z"/>
    <path d="M6.78788 2c0-1.104568.89543-2 2-2h1.93942c1.1045 0 2 .89543 2 2v1.39394H6.78788V2Z"/>
    <path fill-rule="evenodd" d="M17.8182 6.78787H1.69702V25c0 1.6568 1.34315 3 3 3H14.8182c1.6569 0 3-1.3432 3-3V6.78787ZM5.09094 10.1818v13.5758h1.5V10.1818h-1.5Zm4.24243 13.5758V10.1818h1.50003v13.5758H9.33337Zm4.24243-13.5758v13.5758h1.5V10.1818h-1.5Z" clip-rule="evenodd"/>
  </mask>
  <path fill="#2A2238" d="M0 5.54545c0-1.65685 1.34315-3 3-3h13.5152c1.6568 0 3 1.34315 3 3v2.09091H0V5.54545Z"/>
  <path fill="#2A2238" fill-rule="evenodd" d="M17.8182 6.78787H1.69702V25c0 1.6568 1.34315 3 3 3H14.8182c1.6569 0 3-1.3432 3-3V6.78787ZM5.09094 10.1818v13.5758h1.5V10.1818h-1.5Zm4.24243 13.5758V10.1818h1.50003v13.5758H9.33337Zm4.24243-13.5758v13.5758h1.5V10.1818h-1.5Z" clip-rule="evenodd"/>
  <path fill="#2A2238" d="M19.5152 7.63636v1.5h1.5v-1.5h-1.5ZM0 7.63636h-1.5v1.5H0v-1.5Zm12.7273-4.24242v1.5h1.5v-1.5h-1.5Zm-5.93942 0h-1.5v1.5h1.5v-1.5ZM1.69702 6.78787v-1.5H.197021v1.5H1.69702Zm16.12118 0h1.5v-1.5h-1.5v1.5ZM5.09094 23.7576h-1.5v1.5h1.5v-1.5Zm0-13.5758V8.68182h-1.5v1.49998h1.5Zm1.5 13.5758v1.5h1.5v-1.5h-1.5Zm0-13.5758h1.5V8.68182h-1.5v1.49998Zm2.74243 0V8.68182h-1.5v1.49998h1.5Zm0 13.5758h-1.5v1.5h1.5v-1.5Zm1.50003-13.5758h1.5V8.68182h-1.5v1.49998Zm0 13.5758v1.5h1.5v-1.5h-1.5Zm2.7424 0h-1.5v1.5h1.5v-1.5Zm0-13.5758V8.68182h-1.5v1.49998h1.5Zm1.5 13.5758v1.5h1.5v-1.5h-1.5Zm0-13.5758h1.5V8.68182h-1.5v1.49998ZM3 4.04545h13.5152v-3H3v3Zm15.0152 1.5v2.09091h3V5.54545h-3Zm1.5.59091H0v3h19.5152v-3ZM1.5 7.63636V5.54545h-3v2.09091h3Zm15.0152-3.59091c.8284 0 1.5.67158 1.5 1.5h3c0-2.48528-2.0148-4.5-4.5-4.5v3ZM3 1.04545c-2.485281 0-4.5 2.01472-4.5 4.5h3c0-.82842.67157-1.5 1.5-1.5v-3ZM8.78788 1.5h1.93942v-3H8.78788v3Zm2.43942.5v1.39394h3V2h-3Zm1.5-.10606H6.78788v3h5.93942v-3Zm-4.43942 1.5V2h-3v1.39394h3ZM10.7273 1.5c.2761 0 .5.22386.5.5h3c0-1.9329977-1.567-3.5-3.5-3.5v3Zm-1.93942-3c-1.933 0-3.5 1.5670058-3.5 3.5h3c0-.27614.22386-.5.5-.5v-3ZM1.69702 8.28787H17.8182v-3H1.69702v3ZM3.19702 25V6.78787H.197021V25H3.19702Zm1.5 1.5c-.82843 0-1.5-.6716-1.5-1.5H.197021c0 2.4853 2.014719 4.5 4.499999 4.5v-3Zm10.12118 0H4.69702v3H14.8182v-3Zm1.5-1.5c0 .8284-.6715 1.5-1.5 1.5v3c2.4853 0 4.5-2.0147 4.5-4.5h-3Zm0-18.21213V25h3V6.78787h-3ZM6.59094 23.7576V10.1818h-3v13.5758h3Zm0-1.5h-1.5v3h1.5v-3Zm-1.5-12.0758v13.5758h3V10.1818h-3Zm0 1.5h1.5V8.68182h-1.5v2.99998Zm2.74243-1.5v13.5758h3.00003V10.1818H7.83337Zm3.00003-1.49998H9.33337v2.99998h1.50003V8.68182Zm1.5 15.07578V10.1818H9.33337v13.5758h3.00003Zm-3.00003 1.5h1.50003v-3H9.33337v3Zm5.74243-1.5V10.1818h-3v13.5758h3Zm0-1.5h-1.5v3h1.5v-3Zm-1.5-12.0758v13.5758h3V10.1818h-3Zm0 1.5h1.5V8.68182h-1.5v2.99998Z" mask="url(#a)"/>
</svg>

<svg width="20" height="28" viewBox="0 0 20 28" fill="none" xmlns="http://www.w3.org/2000/svg">
<mask id="path-1-inside-1_31_199" fill="white">
<path d="M0 5.54545C0 3.8886 1.34315 2.54545 3 2.54545H16.5152C18.172 2.54545 19.5152 3.8886 19.5152 5.54545V7.63636H0V5.54545Z"/>
<path d="M6.78788 2C6.78788 0.895432 7.68331 0 8.78788 0H10.7273C11.8318 0 12.7273 0.89543 12.7273 2V3.39394H6.78788V2Z"/>
<path fill-rule="evenodd" clip-rule="evenodd" d="M17.8182 6.78787H1.69702V25C1.69702 26.6568 3.04017 28 4.69702 28H14.8182C16.4751 28 17.8182 26.6568 17.8182 25V6.78787ZM5.09094 10.1818V23.7576H6.59094V10.1818H5.09094ZM9.33337 23.7576V10.1818H10.8334V23.7576H9.33337ZM13.5758 10.1818V23.7576H15.0758V10.1818H13.5758Z"/>
</mask>
<path d="M0 5.54545C0 3.8886 1.34315 2.54545 3 2.54545H16.5152C18.172 2.54545 19.5152 3.8886 19.5152 5.54545V7.63636H0V5.54545Z" fill="#2A2238"/>
<path fill-rule="evenodd" clip-rule="evenodd" d="M17.8182 6.78787H1.69702V25C1.69702 26.6568 3.04017 28 4.69702 28H14.8182C16.4751 28 17.8182 26.6568 17.8182 25V6.78787ZM5.09094 10.1818V23.7576H6.59094V10.1818H5.09094ZM9.33337 23.7576V10.1818H10.8334V23.7576H9.33337ZM13.5758 10.1818V23.7576H15.0758V10.1818H13.5758Z" fill="#2A2238"/>
<path d="M19.5152 7.63636V9.13636H21.0152V7.63636H19.5152ZM0 7.63636H-1.5V9.13636H0V7.63636ZM12.7273 3.39394V4.89394H14.2273V3.39394H12.7273ZM6.78788 3.39394H5.28788V4.89394H6.78788V3.39394ZM1.69702 6.78787V5.28787H0.197021V6.78787H1.69702ZM17.8182 6.78787H19.3182V5.28787H17.8182V6.78787ZM5.09094 23.7576H3.59094V25.2576H5.09094V23.7576ZM5.09094 10.1818V8.68182H3.59094V10.1818H5.09094ZM6.59094 23.7576V25.2576H8.09094V23.7576H6.59094ZM6.59094 10.1818H8.09094V8.68182H6.59094V10.1818ZM9.33337 10.1818V8.68182H7.83337V10.1818H9.33337ZM9.33337 23.7576H7.83337V25.2576H9.33337V23.7576ZM10.8334 10.1818H12.3334V8.68182H10.8334V10.1818ZM10.8334 23.7576V25.2576H12.3334V23.7576H10.8334ZM13.5758 23.7576H12.0758V25.2576H13.5758V23.7576ZM13.5758 10.1818V8.68182H12.0758V10.1818H13.5758ZM15.0758 23.7576V25.2576H16.5758V23.7576H15.0758ZM15.0758 10.1818H16.5758V8.68182H15.0758V10.1818ZM3 4.04545H16.5152V1.04545H3V4.04545ZM18.0152 5.54545V7.63636H21.0152V5.54545H18.0152ZM19.5152 6.13636H0V9.13636H19.5152V6.13636ZM1.5 7.63636V5.54545H-1.5V7.63636H1.5ZM16.5152 4.04545C17.3436 4.04545 18.0152 4.71703 18.0152 5.54545H21.0152C21.0152 3.06017 19.0004 1.04545 16.5152 1.04545V4.04545ZM3 1.04545C0.514719 1.04545 -1.5 3.06017 -1.5 5.54545H1.5C1.5 4.71703 2.17157 4.04545 3 4.04545V1.04545ZM8.78788 1.5H10.7273V-1.5H8.78788V1.5ZM11.2273 2V3.39394H14.2273V2H11.2273ZM12.7273 1.89394H6.78788V4.89394H12.7273V1.89394ZM8.28788 3.39394V2H5.28788V3.39394H8.28788ZM10.7273 1.5C11.0034 1.5 11.2273 1.72386 11.2273 2H14.2273C14.2273 0.0670023 12.6603 -1.5 10.7273 -1.5V1.5ZM8.78788 -1.5C6.85488 -1.5 5.28788 0.0670058 5.28788 2H8.28788C8.28788 1.72386 8.51174 1.5 8.78788 1.5V-1.5ZM1.69702 8.28787H17.8182V5.28787H1.69702V8.28787ZM3.19702 25V6.78787H0.197021V25H3.19702ZM4.69702 26.5C3.86859 26.5 3.19702 25.8284 3.19702 25H0.197021C0.197021 27.4853 2.21174 29.5 4.69702 29.5V26.5ZM14.8182 26.5H4.69702V29.5H14.8182V26.5ZM16.3182 25C16.3182 25.8284 15.6467 26.5 14.8182 26.5V29.5C17.3035 29.5 19.3182 27.4853 19.3182 25H16.3182ZM16.3182 6.78787V25H19.3182V6.78787H16.3182ZM6.59094 23.7576V10.1818H3.59094V23.7576H6.59094ZM6.59094 22.2576H5.09094V25.2576H6.59094V22.2576ZM5.09094 10.1818V23.7576H8.09094V10.1818H5.09094ZM5.09094 11.6818H6.59094V8.68182H5.09094V11.6818ZM7.83337 10.1818V23.7576H10.8334V10.1818H7.83337ZM10.8334 8.68182H9.33337V11.6818H10.8334V8.68182ZM12.3334 23.7576V10.1818H9.33337V23.7576H12.3334ZM9.33337 25.2576H10.8334V22.2576H9.33337V25.2576ZM15.0758 23.7576V10.1818H12.0758V23.7576H15.0758ZM15.0758 22.2576H13.5758V25.2576H15.0758V22.2576ZM13.5758 10.1818V23.7576H16.5758V10.1818H13.5758ZM13.5758 11.6818H15.0758V8.68182H13.5758V11.6818Z" fill="#2A2238" mask="url(#path-1-inside-1_31_199)"/>
</svg>
